build/dist/assets/images/services/services-4.svg

<svg width="82" height="64" viewBox="0 0 82 64" fill="none" xmlns="http://www.w3.org/2000/svg">
<path d="M62.2741 35.93C62.1812 35.9565 62.0943 36.001 62.0186 36.061C61.9428 36.1211 61.8796 36.1954 61.8326 36.2799C61.7856 36.3643 61.7557 36.4572 61.7446 36.5533C61.7335 36.6493 61.7414 36.7465 61.7679 36.8395C62.0164 37.7117 61.8033 38.6188 61.2376 39.0964C60.4665 39.7476 59.0782 39.6416 58.4349 38.8825C57.9841 38.3507 58.0105 37.6373 58.0428 37.3553C58.1026 36.8321 57.6078 36.4155 57.1019 36.5662C56.914 36.622 55.9375 36.8718 55.1525 36.3028C54.3066 35.6898 54.0516 34.4127 54.5839 33.4559C54.9662 32.7688 55.7068 32.3295 56.5165 32.3096C57.525 32.2847 58.4528 31.9557 59.1996 31.3578L70.6366 22.2012C70.712 22.1408 70.7748 22.0661 70.8214 21.9814C70.868 21.8967 70.8974 21.8037 70.9081 21.7076C70.9187 21.6116 70.9103 21.5143 70.8834 21.4215C70.8565 21.3287 70.8115 21.2421 70.7511 21.1666C70.6907 21.0912 70.616 21.0284 70.5313 20.9818C70.4466 20.9352 70.3536 20.9057 70.2575 20.8951C70.1615 20.8845 70.0643 20.8928 69.9714 20.9198C69.8786 20.9467 69.792 20.9917 69.7166 21.0521L58.2796 30.2087C57.7863 30.6035 57.1641 30.8212 56.4802 30.838C55.1516 30.8707 53.9321 31.5996 53.2976 32.7402C52.0058 35.062 53.484 38.2912 56.5876 38.1299C56.9572 41.0386 60.403 41.7278 62.1874 40.221C63.1877 39.3764 63.588 37.8553 63.1836 36.4361C63.1301 36.2484 63.0042 36.0896 62.8336 35.9947C62.6631 35.8998 62.4618 35.8765 62.2741 35.93Z" fill="#009B97"/>
<path d="M74.1419 25.5219C74.0976 25.436 74.0369 25.3596 73.9631 25.2971C73.8894 25.2347 73.8041 25.1874 73.712 25.1579C73.62 25.1284 73.523 25.1173 73.4267 25.1253C73.3304 25.1333 73.2366 25.1602 73.1506 25.2044C69.4483 27.1108 66.0374 29.5363 63.0213 32.4076C62.9513 32.4742 62.8951 32.554 62.8559 32.6424C62.8167 32.7308 62.7954 32.826 62.793 32.9226C62.7906 33.0192 62.8073 33.1154 62.8421 33.2056C62.8769 33.2958 62.9291 33.3782 62.9958 33.4482C63.0624 33.5182 63.1422 33.5744 63.2306 33.6136C63.319 33.6527 63.4142 33.6741 63.5108 33.6765C63.6074 33.6788 63.7036 33.6621 63.7938 33.6273C63.8839 33.5926 63.9664 33.5403 64.0364 33.4737C66.9509 30.6991 70.2469 28.3553 73.8245 26.5131C73.998 26.4238 74.1289 26.2691 74.1884 26.0833C74.2479 25.8974 74.2312 25.6955 74.1419 25.5219ZM58.1833 46.5847C57.3496 47.1751 56.775 48.1035 56.6066 49.132C56.1592 51.8652 56.2628 54.6814 56.9145 57.5022C56.9605 57.6902 57.0787 57.8526 57.2435 57.9541C57.4084 58.0557 57.6066 58.0881 57.7952 58.0446C57.9838 58.001 58.1477 57.8848 58.2513 57.7213C58.3549 57.5577 58.3899 57.36 58.3488 57.1708C57.7405 54.5376 57.6431 51.913 58.0593 49.3697C58.1645 48.7275 58.5197 48.1502 59.0341 47.7859C59.1142 47.7305 59.1825 47.6598 59.2351 47.5779C59.2876 47.4959 59.3234 47.4043 59.3404 47.3085C59.3573 47.2126 59.3551 47.1143 59.3338 47.0193C59.3125 46.9243 59.2725 46.8345 59.2162 46.755C59.16 46.6756 59.0885 46.608 59.0059 46.5564C58.9234 46.5048 58.8314 46.47 58.7353 46.4542C58.6393 46.4384 58.541 46.4417 58.4463 46.4641C58.3515 46.4865 58.2621 46.5275 58.1833 46.5847Z" fill="#009B97"/>
<path d="M58.0484 43.0494C58.1432 43.0685 58.2408 43.0688 58.3357 43.0502C58.4305 43.0316 58.5208 42.9945 58.6013 42.941C58.6818 42.8874 58.7509 42.8186 58.8048 42.7383C58.8587 42.6581 58.8962 42.568 58.9153 42.4732C58.9538 42.2819 58.9148 42.083 58.8067 41.9205C58.6986 41.7579 58.5304 41.6449 58.3391 41.6064C57.1467 41.3664 55.9202 41.9439 55.1987 43.0007C54.3207 42.5425 53.2816 42.5092 52.4026 42.9559C50.5333 43.906 50.0139 46.9179 52.2849 48.5504C53.0357 49.0901 53.4372 49.9795 53.3328 50.8714L52.5669 57.4114C52.5157 57.8484 52.857 58.2331 53.2988 58.2331C53.4791 58.2328 53.6529 58.1665 53.7875 58.0466C53.9221 57.9267 54.008 57.7617 54.029 57.5827L54.7949 51.0427C54.9615 49.62 54.329 48.2069 53.1442 47.3552C52.6353 46.9894 52.3148 46.4774 52.265 45.9506C52.2251 45.5304 52.3421 44.638 53.0696 44.2683C53.6668 43.9649 54.4232 44.1066 54.9514 44.621C55.3355 44.995 55.9815 44.8458 56.1596 44.3369C56.501 43.3616 57.3883 42.9163 58.0484 43.0494ZM52.6644 39.255C52.7701 37.2733 51.3802 34.8102 49.6318 34.8753C47.9225 34.9404 47.0285 36.9681 46.9008 38.9486C46.7734 40.9247 47.3971 43.0455 49.0776 43.3284C50.8161 43.6213 52.5553 41.2995 52.6644 39.255ZM49.3221 41.877C48.6924 41.7709 48.2741 40.5262 48.3697 39.0433C48.4655 37.5554 49.0446 36.3707 49.6878 36.3462C50.2183 36.3263 51.2733 37.6985 51.1943 39.1766C51.1131 40.7012 49.853 41.9651 49.3221 41.877Z" fill="#009B97"/>
<path d="M47.2488 31.523C52.21 26.068 59.3303 21.7589 69.2106 16.5744C69.3802 16.4819 69.5066 16.3265 69.5626 16.1416C69.6186 15.9567 69.5996 15.7573 69.5099 15.5862C69.4202 15.4152 69.2668 15.2863 69.0828 15.2273C68.8989 15.1683 68.6992 15.184 68.5267 15.271C58.5042 20.53 51.2667 24.9175 46.1599 30.5328C43.7444 33.1889 42.8033 36.8521 43.6428 40.332C45.0201 46.0415 45.4568 51.9845 44.9405 57.9959C44.9316 58.0925 44.9419 58.19 44.9708 58.2826C44.9997 58.3753 45.0466 58.4613 45.1089 58.5357C45.1711 58.6102 45.2475 58.6716 45.3336 58.7164C45.4197 58.7612 45.5138 58.7885 45.6105 58.7968C45.7071 58.8051 45.8045 58.7942 45.897 58.7648C45.9894 58.7353 46.0752 58.6878 46.1492 58.6251C46.2233 58.5623 46.2842 58.4856 46.3284 58.3992C46.3727 58.3128 46.3994 58.2186 46.4071 58.1218C46.9369 51.9522 46.4883 45.8508 45.0737 39.9868C44.3488 36.9818 45.1619 33.8178 47.2488 31.523ZM65.2126 42.1215C65.1754 42.0319 65.1208 41.9504 65.052 41.8819C64.9832 41.8134 64.9016 41.7592 64.8117 41.7224C64.7219 41.6856 64.6256 41.667 64.5286 41.6675C64.4315 41.668 64.3355 41.6878 64.246 41.7256C64.1566 41.7634 64.0756 41.8186 64.0076 41.8878C63.9395 41.9571 63.8859 42.0392 63.8497 42.1293C63.8135 42.2194 63.7956 42.3157 63.7968 42.4128C63.798 42.5099 63.8184 42.6057 63.8569 42.6949C65.8809 47.4812 66.1113 52.7714 64.5555 57.6757C64.4049 58.1505 64.7604 58.6345 65.2572 58.6345C65.4135 58.6344 65.5657 58.5845 65.6918 58.4922C65.8179 58.3999 65.9113 58.2698 65.9586 58.1208C67.6167 52.8939 67.3781 47.2425 65.2126 42.1215ZM80.7388 28.7624C80.6648 28.7002 80.5793 28.6532 80.4871 28.6241C80.3949 28.595 80.2979 28.5843 80.2016 28.5927C80.1054 28.6011 80.0117 28.6283 79.9259 28.6729C79.8401 28.7175 79.764 28.7785 79.7019 28.8526C76.4673 32.7026 72.737 36.1072 68.6084 38.9777C68.529 39.0329 68.4613 39.1031 68.4091 39.1845C68.3569 39.2658 68.3212 39.3566 68.3041 39.4518C68.287 39.5469 68.2888 39.6445 68.3094 39.7389C68.33 39.8333 68.369 39.9228 68.4241 40.0021C68.4793 40.0815 68.5495 40.1492 68.6309 40.2014C68.7122 40.2537 68.803 40.2893 68.8982 40.3064C68.9933 40.3236 69.0909 40.3218 69.1853 40.3012C69.2797 40.2806 69.3692 40.2416 69.4485 40.1864C73.684 37.2418 77.5108 33.7491 80.8289 29.7994C80.8911 29.7254 80.9381 29.6399 80.9672 29.5477C80.9964 29.4555 81.007 29.3585 80.9987 29.2622C80.9903 29.1659 80.963 29.0722 80.9184 28.9865C80.8739 28.9007 80.8128 28.8246 80.7388 28.7624Z" fill="#009B97"/>
<path fill-rule="evenodd" clip-rule="evenodd" d="M4.3133 34.4869C6.78892 33.9275 7.22804 33.8765 8.31772 34.0759C9.24561 34.2467 10.1985 34.228 11.1189 34.0209L24.8582 30.9459C27.5727 30.3386 27.9991 26.6724 25.5441 25.4287C26.689 23.9568 26.2097 21.8189 24.5476 20.9757C24.729 20.7425 24.875 20.4837 24.9807 20.2077L36.9361 27.7902C37.0528 27.8641 37.2158 27.9065 37.3646 27.8912L41.2799 27.4861C41.487 27.4646 41.764 27.3596 41.9926 27.1773L46.61 30.106C46.7603 30.2013 46.9423 30.2331 47.116 30.1942C47.2896 30.1554 47.4407 30.0491 47.5361 29.8989C47.6314 29.7486 47.6631 29.5666 47.6243 29.3929C47.5854 29.2193 47.4792 29.0682 47.3289 28.9728L42.7106 26.0436C42.7779 25.7599 42.7555 25.4654 42.6869 25.2681L41.3844 21.5537C41.3334 21.4118 41.2372 21.2907 41.1106 21.2089L36.5123 18.2925C36.362 18.1972 36.1799 18.1655 36.0063 18.2044C35.8326 18.2433 35.6815 18.3496 35.5862 18.4999C35.4909 18.6502 35.4592 18.8322 35.4981 19.0059C35.537 19.1796 35.6433 19.3307 35.7936 19.426L39.8249 21.9825L37.0882 26.2975L36.0412 25.6335L36.327 25.1824C36.3742 25.108 36.4063 25.025 36.4215 24.9382C36.4366 24.8514 36.4345 24.7625 36.4153 24.6765C36.3961 24.5905 36.3601 24.5092 36.3094 24.4371C36.2587 24.365 36.1943 24.3036 36.1199 24.2564C36.0455 24.2092 35.9626 24.1771 35.8758 24.162C35.7889 24.1468 35.7 24.1489 35.614 24.1681C35.528 24.1874 35.4466 24.2233 35.3746 24.274C35.3025 24.3247 35.2411 24.3891 35.1939 24.4635L34.908 24.9146L33.7348 24.1708L34.0209 23.7195C34.0701 23.6451 34.1039 23.5616 34.1204 23.474C34.1369 23.3863 34.1358 23.2963 34.1171 23.2091C34.0985 23.1219 34.0626 23.0393 34.0116 22.9661C33.9606 22.8929 33.8956 22.8306 33.8203 22.7828C33.7449 22.7351 33.6609 22.7028 33.5729 22.6879C33.485 22.673 33.395 22.6758 33.3081 22.6961C33.2213 22.7164 33.1393 22.7538 33.0671 22.8062C32.9949 22.8585 32.9338 22.9247 32.8875 23.0009L32.6017 23.452L31.4287 22.708L31.7147 22.2571C31.7619 22.1827 31.794 22.0997 31.8091 22.0128C31.8243 21.926 31.8221 21.837 31.8029 21.751C31.7836 21.665 31.7476 21.5836 31.6969 21.5115C31.6462 21.4394 31.5818 21.378 31.5073 21.3308C31.1948 21.1321 30.7801 21.225 30.5814 21.538L30.2955 21.9891L29.1225 21.2451L29.4084 20.794C29.5036 20.6437 29.5353 20.4617 29.4965 20.2881C29.4577 20.1145 29.3515 19.9634 29.2013 19.868C29.0509 19.7727 28.8689 19.7411 28.6952 19.7799C28.5215 19.8188 28.3703 19.9251 28.2749 20.0753L27.9891 20.5265L26.8399 19.7975L29.5764 15.4826L33.148 17.7477C33.2982 17.8417 33.4796 17.8724 33.6524 17.8332C33.8252 17.794 33.9755 17.688 34.0705 17.5383C34.1654 17.3887 34.1973 17.2075 34.1591 17.0345C34.121 16.8614 34.0159 16.7104 33.8668 16.6146L30.0415 14.1882C30.18 13.7111 30.1952 13.2066 30.0858 12.7219C29.7294 11.1292 28.1524 10.1286 26.5596 10.4855L26.2229 10.5606C26.1297 10.2566 25.933 9.98293 25.6441 9.79987L25.0714 9.43629C24.4274 9.0278 23.5754 9.21821 23.1666 9.8628L22.145 11.4732L22.1149 11.4801L19.5465 9.85114L19.6349 9.71177C20.0435 9.06746 19.8528 8.21562 19.2086 7.80683L18.6358 7.44382C18.3432 7.25801 18.0042 7.19806 17.6828 7.2488C17.6109 7.12504 17.5292 7.00515 17.436 6.89099C16.7299 6.02473 14.9466 5.66935 14.0489 6.37654L10.6361 9.08292C10.4967 9.19356 10.4069 9.35505 10.3865 9.53189C10.3661 9.70872 10.4168 9.88641 10.5273 10.0259C10.5821 10.095 10.6499 10.1526 10.7269 10.1954C10.804 10.2383 10.8887 10.2655 10.9763 10.2756C11.0638 10.2857 11.1525 10.2784 11.2373 10.2541C11.322 10.2299 11.4011 10.1892 11.4701 10.1344L11.5333 10.0842C11.9979 9.71577 14.8657 7.4411 14.8739 7.4359C15.2093 7.22083 16.1182 7.39831 16.3959 7.73877C16.7875 8.21943 16.799 8.91459 16.4069 9.41436L13.9922 12.5699C13.3328 13.4312 14.1104 14.6467 15.1686 14.4099C15.6946 14.292 26.3137 11.9154 26.8527 11.7949C27.7194 11.6009 28.5822 12.148 28.7762 13.0147C28.9685 13.8747 28.4291 14.7425 27.5564 14.9383L21.8532 16.2145L17.7812 17.1259C17.6075 17.1649 17.4565 17.2712 17.3612 17.4215C17.2659 17.5718 17.2343 17.7538 17.2732 17.9274C17.3538 18.2889 17.7127 18.5164 18.0744 18.4356L21.8684 17.5867C23.2765 17.2714 24.3359 18.8298 23.5804 20.021C23.4675 20.2 23.3202 20.3548 23.1471 20.4765C22.9739 20.5982 22.7784 20.6844 22.5717 20.73L18.7779 21.5792C18.6919 21.5984 18.6105 21.6343 18.5384 21.685C18.4663 21.7357 18.4049 21.8001 18.3577 21.8745C18.3106 21.9489 18.2785 22.0319 18.2634 22.1187C18.2483 22.2055 18.2504 22.2945 18.2697 22.3805C18.2889 22.4665 18.3249 22.5478 18.3756 22.6199C18.4263 22.692 18.4907 22.7534 18.5651 22.8006C18.6395 22.8478 18.7225 22.8798 18.8093 22.8949C18.8961 22.91 18.985 22.9079 19.071 22.8886L22.865 22.0396C24.2611 21.7269 25.3426 23.2668 24.5769 24.474C24.464 24.653 24.3168 24.8078 24.1437 24.9296C23.9706 25.0513 23.7751 25.1375 23.5685 25.1832L19.7744 26.0321C19.4129 26.1132 19.1852 26.4718 19.2663 26.8334C19.3052 27.0071 19.4114 27.1582 19.5617 27.2536C19.712 27.3489 19.8941 27.3807 20.0678 27.3418L23.8615 26.4926C24.7282 26.2986 25.5912 26.8461 25.7851 27.7125C25.9794 28.5795 25.4319 29.4424 24.565 29.6362C11.3805 32.5871 10.1813 32.9749 9.0468 32.8359C8.89305 32.817 8.74048 32.7885 8.55942 32.7554C7.20364 32.5071 6.54514 32.602 3.95411 33.1901L4.3133 34.4869ZM0.364168 20.2287C1.02564 19.9202 1.58068 19.5174 1.9062 19.1581C5.57271 15.1283 6.25874 14.3109 7.05757 13.6249C7.49863 13.2461 7.97407 12.9074 9.00453 12.0901C9.07359 12.0354 9.13119 11.9676 9.17403 11.8907C9.21687 11.8137 9.24412 11.729 9.25422 11.6415C9.26431 11.5539 9.25705 11.4653 9.23286 11.3806C9.20867 11.2958 9.16802 11.2167 9.11323 11.1477C9.05853 11.0786 8.99074 11.021 8.91374 10.9781C8.83674 10.9352 8.75203 10.9079 8.66447 10.8978C8.57692 10.8876 8.48822 10.8949 8.40346 10.919C8.3187 10.9432 8.23954 10.9839 8.17051 11.0387C7.01935 11.9518 6.51218 12.3134 6.04458 12.7204C5.24186 13.4191 4.55574 14.2518 0.928408 18.2387C0.649737 18.5061 0.337139 18.7329 0 18.9139L0.364168 20.2287ZM24.31 10.5709C24.3059 10.5738 24.3024 10.5775 24.2997 10.5817L23.9969 11.0589L24.8296 10.8726L24.3524 10.5699C24.3481 10.5672 24.3434 10.5654 24.3385 10.5645C24.3336 10.5637 24.3285 10.5638 24.3236 10.5649C24.3187 10.566 24.3141 10.568 24.31 10.5709ZM19.3404 12.1012C19.7305 12.0139 20.1477 11.9205 20.2628 11.8949L18.8276 10.9847L18.189 11.9917L18.6166 12.2632C18.7179 12.2406 19.02 12.1729 19.3404 12.1012ZM18.5005 8.95071C18.4976 8.94661 18.4939 8.94312 18.4897 8.94044L18.0412 8.65591C18.0163 9.56091 17.6988 9.96887 16.5839 11.4013C16.3715 11.6743 16.1301 11.9844 15.8563 12.3422L16.1958 12.5576C16.2 12.5603 16.2047 12.5621 16.2097 12.563C16.2146 12.5639 16.2197 12.5638 16.2246 12.5627C16.2294 12.5616 16.2341 12.5595 16.2382 12.5567C16.2423 12.5538 16.2458 12.5501 16.2484 12.5459C16.3963 12.3125 16.9455 11.4465 17.4685 10.622C17.9347 9.88689 18.3801 9.18472 18.5015 8.99315C18.5042 8.98892 18.506 8.98419 18.5069 8.97925C18.5078 8.97431 18.5076 8.96924 18.5065 8.96434C18.5055 8.95945 18.5034 8.95482 18.5005 8.95071ZM40.576 23.3043L38.6035 26.4139L41.1061 26.1547C41.1394 26.145 41.1682 26.1235 41.1868 26.0942C41.1876 26.0933 41.2873 25.9355 41.2873 25.9355L41.388 25.777C41.4065 25.7477 41.4137 25.7124 41.4083 25.6786L40.576 23.3043ZM25.1186 18.5967C25.119 18.5997 25.1388 18.7136 25.1398 18.7197L25.7064 19.0789L27.4443 16.339L26.4028 16.572L25.1186 18.5967Z" fill="#009B97"/>
</svg>

<svg width="82" height="64" fill="none" xmlns="http://www.w3.org/2000/svg"><path d="M62.274 35.93a.737.737 0 00-.506.91c.248.872.035 1.779-.53 2.256-.771.652-2.16.546-2.803-.213-.45-.532-.425-1.246-.392-1.528a.736.736 0 00-.941-.789c-.188.056-1.164.306-1.95-.263-.845-.613-1.1-1.89-.568-2.847a2.274 2.274 0 011.932-1.146c1.009-.025 1.937-.354 2.684-.952L70.637 22.2a.737.737 0 00-.92-1.149L58.28 30.21c-.494.395-1.116.612-1.8.629a3.75 3.75 0 00-3.182 1.902c-1.292 2.322.186 5.551 3.29 5.39.37 2.909 3.815 3.598 5.6 2.091 1-.845 1.4-2.366.996-3.785a.736.736 0 00-.91-.506z" fill="#009B97"/><path d="M74.142 25.522a.737.737 0 00-.991-.318 43.715 43.715 0 00-10.13 7.204.736.736 0 101.015 1.066 42.242 42.242 0 019.788-6.96.736.736 0 00.318-.992zM58.183 46.585a3.906 3.906 0 00-1.576 2.547c-.448 2.733-.344 5.55.307 8.37a.736.736 0 001.435-.331c-.608-2.633-.706-5.258-.29-7.801.105-.642.46-1.22.975-1.584a.737.737 0 00-.299-1.332.736.736 0 00-.552.13z" fill="#009B97"/><path d="M58.048 43.05a.737.737 0 10.291-1.444c-1.192-.24-2.419.338-3.14 1.395-.878-.459-1.917-.492-2.796-.045-1.87.95-2.39 3.962-.118 5.594.75.54 1.152 1.43 1.048 2.321l-.766 6.54a.736.736 0 001.462.172l.766-6.54a3.984 3.984 0 00-1.65-3.688c-.51-.366-.83-.878-.88-1.404-.04-.42.077-1.313.805-1.683.597-.303 1.353-.161 1.881.353a.736.736 0 001.209-.284c.341-.975 1.228-1.42 1.888-1.288zm-5.384-3.795c.106-1.982-1.284-4.445-3.032-4.38-1.71.065-2.603 2.093-2.731 4.074-.128 1.976.496 4.096 2.177 4.38 1.738.292 3.477-2.03 3.586-4.074zm-3.342 2.622c-.63-.106-1.048-1.35-.952-2.834.096-1.488.675-2.672 1.318-2.697.53-.02 1.585 1.353 1.506 2.83-.08 1.525-1.341 2.79-1.872 2.701z" fill="#009B97"/><path d="M47.249 31.523c4.961-5.455 12.081-9.764 21.962-14.949a.736.736 0 00-.684-1.303c-10.023 5.259-17.26 9.646-22.367 15.262a10.792 10.792 0 00-2.517 9.799c1.377 5.71 1.814 11.652 1.297 17.664a.736.736 0 101.467.126c.53-6.17.081-12.271-1.333-18.135a9.321 9.321 0 012.175-8.464zm17.964 10.598a.737.737 0 10-1.356.574 21.605 21.605 0 01.698 14.98.737.737 0 001.404.446 23.076 23.076 0 00-.746-16zm15.526-13.359a.735.735 0 00-1.037.09 56.95 56.95 0 01-11.094 10.126.735.735 0 10.84 1.208A58.407 58.407 0 0080.828 29.8a.735.735 0 00-.09-1.037z" fill="#009B97"/><path fill-rule="evenodd" clip-rule="evenodd" d="M4.313 34.487c2.476-.56 2.915-.61 4.005-.411.928.17 1.88.152 2.8-.055l13.74-3.075c2.715-.607 3.141-4.274.686-5.517a2.952 2.952 0 00-.996-4.453c.181-.233.327-.492.433-.768l11.955 7.582a.7.7 0 00.429.101l3.915-.405c.207-.021.484-.126.713-.309l4.617 2.929a.671.671 0 00.719-1.133l-4.618-2.93a1.466 1.466 0 00-.024-.775l-1.303-3.714a.687.687 0 00-.273-.345l-4.599-2.916a.671.671 0 00-.718 1.133l4.03 2.557-2.736 4.314-1.047-.663.286-.452a.672.672 0 00-.713-1.014.67.67 0 00-.42.296l-.286.45-1.173-.743.286-.451a.67.67 0 10-1.133-.72l-.286.452-1.173-.744.286-.45a.67.67 0 00-1.134-.72l-.285.451-1.174-.744.286-.451a.672.672 0 00-1.133-.719l-.286.451-1.15-.729 2.737-4.314 3.572 2.265a.671.671 0 00.719-1.133l-3.825-2.427a2.95 2.95 0 00-3.482-3.703l-.337.076a1.373 1.373 0 00-.579-.761l-.573-.364a1.38 1.38 0 00-1.904.427l-1.022 1.61-.03.007-2.568-1.629.088-.14a1.38 1.38 0 00-.426-1.904l-.573-.363a1.372 1.372 0 00-.953-.195 2.744 2.744 0 00-.247-.358c-.706-.866-2.49-1.222-3.387-.514l-3.413 2.706a.671.671 0 00.834 1.051l.063-.05 3.34-2.648c.336-.215 1.245-.038 1.523.303.392.48.403 1.176.01 1.675l-2.414 3.156c-.66.861.118 2.077 1.177 1.84l11.684-2.615a1.612 1.612 0 011.923 1.22 1.613 1.613 0 01-1.22 1.923l-5.703 1.277-4.072.91a.671.671 0 00.293 1.31l3.794-.848c1.409-.316 2.468 1.243 1.712 2.434a1.6 1.6 0 01-1.008.709l-3.794.85a.67.67 0 10.293 1.309l3.794-.85c1.396-.312 2.478 1.228 1.712 2.435a1.602 1.602 0 01-1.009.71l-3.794.848a.67.67 0 10.294 1.31l3.793-.85a1.613 1.613 0 011.924 1.22 1.612 1.612 0 01-1.22 1.924c-13.185 2.951-14.384 3.339-15.518 3.2-.154-.019-.307-.047-.488-.08-1.355-.249-2.014-.154-4.605.434l.36 1.297zM.364 20.229c.662-.309 1.217-.712 1.542-1.07 3.667-4.03 4.353-4.848 5.152-5.534.44-.379.916-.718 1.947-1.535a.671.671 0 10-.834-1.051c-1.152.913-1.659 1.274-2.126 1.681-.803.7-1.49 1.532-5.117 5.519a4.233 4.233 0 01-.928.675l.364 1.315zM24.31 10.57a.04.04 0 00-.01.01l-.303.478.833-.186-.478-.303a.04.04 0 00-.014-.005.04.04 0 00-.028.006zm-4.97 1.53l.923-.206-1.435-.91-.639 1.007.428.271.723-.162zm-.84-3.15a.039.039 0 00-.01-.01l-.449-.285c-.025.905-.342 1.313-1.457 2.745-.212.273-.454.583-.728.941l.34.216a.038.038 0 00.052-.012l1.22-1.924 1.034-1.629a.039.039 0 00.005-.029.036.036 0 00-.007-.013zm22.076 14.353l-1.973 3.11 2.503-.26a.143.143 0 00.08-.06c.002 0 .101-.159.101-.159l.101-.158a.143.143 0 00.02-.098l-.832-2.375zm-15.457-4.707l.02.123.567.359 1.738-2.74-1.041.233-1.284 2.025z" fill="#009B97"/></svg>
